X: 6
T:NOTRE BENOITE
M:3/4
L:1/8
Q:90
C:trad. Bugey
R:mazurka
K:C
|:cd|e2e2 fe|d2d2 ed|1c2c2 ce|d4:|2 c2c2 dB|c4|:ef|g2g2 ag|f2f2 gf|e2e2
dc|d4 cd|e2e2 fe|d2d2 ed|c2c2 dB|c4:|
